X:154
T:Fisherman's Lilt
T:Molly, What Ails You?
R:reel
H:Also in D, #206. The second name is from O'Neill's
H:Also played as "The Kerryman's Fling", fling#4.
Z:id:hn-reel-154
M:C|
K:C
~G3E GAcd|edcB cA~A2|GE~E2 GAcd|1 edcB c3B:|2 edcB c3d||
|:eg~g2 ageg|gede cA~A2|1 eg~g2 ea~a2|gabg ~a3g:|2 GE~E2 GAcd|edcB c3B||

